X:1
T:Bourre valse d'Issoudun, abc file by Bernard Loffet
C:Traditionnel
L:1/8
Q:228
M:3/8
K:G
z2D|:[GG,]G,[FD,]|[GG,]G,[F/D,/]G/|[AD,][BG,][GG,]|[AD,]D,[DG,]|[AD,]D,[BG,]|[AD,]D,[G/G,/]F/|[ED,][FD,][ED,]| \
|1[DG,]G,[DG,]:|2[DG,]G,[BG,]|:[BG,][dG,][BG,]|[AD,][cD,][AD,]|[GG,][G/G,/]F/[G/G,/]A/|[BG,][GG,][BG,]| \
[BG,][dG,][BG,]|[AD,][cD,][AD,]|[G/G,/]F/[ED,][FD,]|1[GG,]G,[BG,]:|2[GG,]G,G,| \
Z:Created with TablEdit http://www.tabledit.com/ by Bernard Loffet
